src/assets/footer/logo-gray.svg

<?xml version="1.0" encoding="UTF-8"?>
<svg width="90px" height="38px" viewBox="0 0 90 38" version="1.1" xmlns="http://www.w3.org/2000/svg" xmlns:xlink="http://www.w3.org/1999/xlink">
    <title>837E1A47-FCD4-43C8-983C-DE1AE5E555B5</title>
    <defs>
        <filter id="filter-1">
            <feColorMatrix in="SourceGraphic" type="matrix" values="0 0 0 0 0.848760 0 0 0 0 0.848760 0 0 0 0 0.848760 0 0 0 1.000000 0"></feColorMatrix>
        </filter>
    </defs>
    <g id="blog-2021-website" stroke="none" stroke-width="1" fill="none" fill-rule="evenodd">
        <g id="MB_website_2021_blog-(1440)-article-view-(PL)" transform="translate(-136.000000, -6260.000000)">
            <g id="Group-4" transform="translate(0.000000, 4900.906250)">
                <g id="Group-21" transform="translate(0.000000, 570.093750)">
                    <g id="Group-11" transform="translate(0.000000, 126.000000)">
                        <g id="footer" transform="translate(0.000000, 378.000000)">
                            <g id="MB_logo_brandcolor_blackbg" transform="translate(136.000000, 285.000000)" filter="url(#filter-1)">
                                <g>
                                    <polygon id="Path" fill="#FFFFFF" fill-rule="nonzero" points="90 15.63125 90 37.18 85.7075 37.18 77.84 24.31375 77.7775 24.31375 77.7775 37.18 73.01875 37.18 73.01875 15.63125 77.31125 15.63125 85.17875 28.5 85.24125 28.5 85.24125 15.63125"></polygon>
                                    <path d="M57.54125,30.06 L57.54125,37.185 L52.68875,37.185 L52.68875,15.63125 L60.625,15.63125 C63.5275,15.63125 65.5954167,16.1883333 66.82875,17.3025 C68.0620833,18.4166667 68.6791667,20.2641667 68.68,22.845 L68.68,22.9075 C68.68,26.2408333 67.22875,28.4166667 64.32625,29.435 L69.42625,37.185 L64.2275,37.185 L59.59375,30.06 L57.54125,30.06 Z M57.47875,25.84375 L60.65125,25.84375 C61.81125,25.84375 62.6354167,25.5991667 63.12375,25.11 C63.6120833,24.6208333 63.8554167,23.8866667 63.8537585,22.9075 L63.8537585,22.845 C63.8537585,21.8675 63.6104167,21.1441667 63.12375,20.675 C62.6370833,20.2058333 61.8129167,19.9716667 60.65125,19.9724978 L57.47875,19.9724978 L57.47875,25.84375 Z" id="Shape" fill="#FFFFFF" fill-rule="nonzero"></path>
                                    <path d="M38.93375,37.61625 C32.58875,37.61625 29.41625,33.89 29.41625,26.4375 L29.41625,26.375 C29.41625,18.9225 32.58875,15.1958333 38.93375,15.1949999 C45.27875,15.1941667 48.4508333,18.9208333 48.4500002,26.375 L48.4500002,26.43875 C48.4500002,33.8904167 45.2779167,37.61625 38.93375,37.61625 Z M35.35625,31.605 C36.04125,32.74 37.23375,33.3075 38.93375,33.3075 C40.63375,33.3075 41.8258333,32.74 42.51,31.605 C43.1941667,30.4716667 43.53625,28.7491667 43.53625,26.4375 L43.53625,26.375 C43.53625,24.065 43.1941667,22.3425 42.51,21.2075 C41.8258333,20.0725 40.63375,19.5033333 38.93375,19.5 C37.23375,19.5 36.04125,20.0675 35.35625,21.2025 C34.67125,22.3375 34.3291667,24.0616667 34.3299985,26.375 L34.3299985,26.43875 C34.3299985,28.7479167 34.6720833,30.47 35.35625,31.605 L35.35625,31.605 Z" id="Shape" fill="#FFFFFF" fill-rule="nonzero"></path>
                                    <path d="M10,37.18 L10,15.63125 L17.775,15.63125 C20.4291667,15.63125 22.39375,16.0895833 23.66875,17.00625 C24.94375,17.9229167 25.58125,19.3904167 25.58125,21.40875 L25.58125,21.47125 C25.58125,22.6379167 25.2858333,23.6379167 24.695,24.47125 C24.1041667,25.3045833 23.425,25.84625 22.6575,26.09625 L22.6575,26.15875 C23.6304866,26.4289033 24.4915886,27.0031173 25.115,27.7975 C25.7775,28.62 26.1108333,29.635 26.115,30.8425 L26.115,30.905 C26.115,35.09 23.4504167,37.1825 18.12125,37.1825 L10,37.18 Z M14.75875,19.75 L14.75875,24.15375 L18.05625,24.15375 C19.07125,24.15375 19.77625,23.9870833 20.17125,23.65375 C20.56625,23.3204167 20.7629167,22.7166667 20.7612605,21.8425 L20.7612605,21.78 C20.7612605,21.01 20.5229167,20.4791667 20.04625,20.1875 C19.5695833,19.8958333 18.83375,19.75 17.83875,19.75 L14.75875,19.75 Z M14.75875,28.08875 L14.75875,33.05375 L18.18,33.05375 C20.2533333,33.05375 21.29,32.23125 21.29,30.58625 L21.29,30.52375 C21.29,29.6495833 21.0516667,29.0245833 20.575,28.64875 C20.0983333,28.2729167 19.2895833,28.0858333 18.14875,28.087489 L14.75875,28.08875 Z" id="Shape" fill="#FFFFFF" fill-rule="nonzero"></path>
                                    <path d="M84.15375,7.6375 L84.15375,11.095 L81.23875,11.095 L81.23875,0.345 L85.47125,0.345 C86.97125,0.345 88.03875,0.633333333 88.67375,1.21 C89.30875,1.78666667 89.6258333,2.725 89.625,4.025 L89.625,4.05625 C89.625,5.72791667 88.9429167,6.8025 87.57875,7.28 L90,11.095 L86.93,11.095 L84.83625,7.6375 L84.15375,7.6375 Z M84.125,5.395 L85.425,5.395 C85.925,5.395 86.26875,5.28333333 86.45625,5.06 C86.64375,4.83666667 86.7395833,4.50333333 86.74375,4.06 L86.74375,4.02875 C86.74375,3.57291667 86.6504167,3.24583333 86.46375,3.0475 C86.27875,2.85125 85.93125,2.7525 85.425,2.7525 L84.125,2.7525 L84.125,5.395 Z" id="Shape" fill="#FFFFFF" fill-rule="nonzero"></path>
                                    <polygon id="Path" fill="#FFFFFF" fill-rule="nonzero" points="76.19625 0.35 76.19625 2.81 71.76125 2.81 71.76125 4.47625 75.76125 4.47625 75.76125 6.78125 71.76125 6.78125 71.76125 8.63375 76.26125 8.63375 76.26125 11.095 68.83125 11.095 68.83125 0.345"></polygon>
                                    <polygon id="Path" fill="#FFFFFF" fill-rule="nonzero" points="63.85125 0.35 63.85125 2.88875 60.905 2.88875 60.905 11.095 57.99 11.095 57.99 2.88875 55.05875 2.88875 55.05875 0.35"></polygon>
                                    <path d="M45.84625,6.89 L44.93125,6.735 C43.65875,6.49583333 42.7358333,6.12958333 42.1625,5.63625 C41.5891667,5.14291667 41.3025,4.3725 41.3025,3.325 L41.3025,3.29375 C41.3025,1.17541667 42.6875,0.11625 45.4575,0.11625 C46.915,0.11625 47.9720833,0.391666667 48.62875,0.9425 C49.2854167,1.49333333 49.645,2.30791667 49.7075,3.38625 L46.885,3.38625 C46.8225,2.75375 46.3570833,2.43708333 45.48875,2.43625 C44.6204167,2.43541667 44.18125,2.71083333 44.17125,3.2625 L44.17125,3.29375 C44.1689358,3.55919458 44.3131175,3.80430351 44.54625,3.93125 C44.79625,4.08791667 45.2204167,4.22291667 45.81875,4.33625 L46.81125,4.52375 C47.95875,4.73125 48.7920833,5.08416667 49.31125,5.5825 C49.8304167,6.08083333 50.08875,6.8075 50.086268,7.7625 L50.086268,7.79375 C50.086268,9.02875 49.7141667,9.92666667 48.97,10.4875 C48.2258333,11.0483333 47.135,11.3283333 45.6975,11.3275019 C44.1891667,11.3275019 43.06,11.01375 42.31,10.38625 C41.56,9.75875 41.1591667,8.79083333 41.1075,7.4825 L43.93,7.4825 C43.9716667,7.97 44.1420833,8.345 44.44125,8.6075 C44.7404167,8.87 45.1541667,8.99958333 45.6825,8.99625 C46.2516667,8.99625 46.6495833,8.91583333 46.87625,8.755 C47.10375,8.59375 47.2175,8.3325 47.2175,7.96875 L47.2175,7.9375 C47.2242336,7.69233247 47.1148923,7.45836069 46.9225,7.30625 C46.7241667,7.14375 46.3654167,7.005 45.84625,6.89 Z" id="Path" fill="#FFFFFF" fill-rule="nonzero"></path>
                                    <path d="M29.40625,0.35 L32.445,0.35 L36.12125,11.1 L33.15875,11.1 L32.585,9.09125 L29.26625,9.09125 L28.6775,11.1 L25.715,11.1 L29.40625,0.35 Z M29.93375,6.84375 L31.9025,6.84375 L30.94125,3.325 L30.91,3.325 L29.93375,6.84375 Z" id="Shape" fill="#FFFFFF" fill-rule="nonzero"></path>
                                    <polygon id="Path" fill="#FFFFFF" fill-rule="nonzero" points="16.00625 8.75 14.71875 8.75 12.88875 5.0275 12.85875 5.0275 12.85875 11.10125 10 11.10125 10 0.35125 13.03875 0.35125 15.375 5.08375 17.70125 0.35 20.74125 0.35 20.74125 11.1 17.8825 11.1 17.8825 5.02125 17.85125 5.02125"></polygon>
                                    <rect id="Rectangle" fill="#F7CA18" fill-rule="nonzero" x="0" y="0.35" width="4.28625" height="36.82875"></rect>
                                </g>
                            </g>
                        </g>
                    </g>
                </g>
            </g>
        </g>
    </g>
</svg>

<svg xmlns="http://www.w3.org/2000/svg" width="90" height="38" viewBox="0 0 90 38">
    <g fill="none" fill-rule="evenodd">
        <g fill="#434343" fill-rule="nonzero">
            <g>
                <g>
                    <path d="M90 15.631L90 37.18 85.707 37.18 77.84 24.314 77.778 24.314 77.778 37.18 73.019 37.18 73.019 15.631 77.311 15.631 85.179 28.5 85.241 28.5 85.241 15.631zM57.541 30.06v7.125H52.69V15.631h7.936c2.903 0 4.97.557 6.204 1.671 1.233 1.115 1.85 2.962 1.851 5.543v.063c0 3.333-1.451 5.509-4.354 6.527l5.1 7.75h-5.198l-4.634-7.125H57.54zm-.062-4.216h3.172c1.16 0 1.984-.245 2.473-.734.488-.49.731-1.223.73-2.203v-.062c0-.977-.244-1.7-.73-2.17-.487-.47-1.311-.703-2.473-.703H57.48v5.872zM38.934 37.616c-6.345 0-9.518-3.726-9.518-11.178v-.063c0-7.453 3.173-11.18 9.518-11.18 6.345 0 9.517 3.726 9.516 11.18v.064c0 7.451-3.172 11.177-9.516 11.177zm-3.578-6.011c.685 1.135 1.878 1.702 3.578 1.702s2.892-.567 3.576-1.702c.684-1.133 1.026-2.856 1.026-5.168v-.062c0-2.31-.342-4.032-1.026-5.168-.684-1.134-1.876-1.704-3.576-1.707-1.7 0-2.893.567-3.578 1.703-.685 1.134-1.027 2.859-1.026 5.172v.064c0 2.309.342 4.031 1.026 5.166zM10 37.18V15.631h7.775c2.654 0 4.619.459 5.894 1.375 1.275.917 1.912 2.384 1.912 4.403v.062c0 1.167-.295 2.167-.886 3-.59.834-1.27 1.375-2.038 1.625v.063c.973.27 1.835.844 2.458 1.639.663.822.996 1.837 1 3.045v.062c0 4.185-2.665 6.277-7.994 6.277L10 37.18zm4.759-17.43v4.404h3.297c1.015 0 1.72-.167 2.115-.5.395-.334.592-.937.59-1.811v-.063c0-.77-.238-1.3-.715-1.593-.476-.291-1.212-.437-2.207-.437h-3.08zm0 8.339v4.965h3.421c2.073 0 3.11-.823 3.11-2.468v-.062c0-.874-.238-1.5-.715-1.875-.477-.376-1.285-.563-2.426-.562l-3.39.002zM84.154 7.638v3.457h-2.915V.345h4.232c1.5 0 2.568.288 3.203.865.635.577.952 1.515.951 2.815v.031c0 1.672-.682 2.747-2.046 3.224L90 11.095h-3.07l-2.094-3.458h-.682zm-.029-2.243h1.3c.5 0 .844-.112 1.031-.335.188-.223.284-.557.288-1v-.031c0-.456-.094-.783-.28-.982-.185-.196-.533-.295-1.039-.295h-1.3v2.643zM76.196.35L76.196 2.81 71.761 2.81 71.761 4.476 75.761 4.476 75.761 6.781 71.761 6.781 71.761 8.634 76.261 8.634 76.261 11.095 68.831 11.095 68.831.345zM63.851.35L63.851 2.889 60.905 2.889 60.905 11.095 57.99 11.095 57.99 2.889 55.059 2.889 55.059.35zM45.846 6.89l-.915-.155c-1.272-.24-2.195-.605-2.768-1.099-.574-.493-.86-1.264-.86-2.311v-.031c0-2.119 1.385-3.178 4.155-3.178 1.457 0 2.514.276 3.17.827.657.55 1.017 1.365 1.08 2.443h-2.823c-.063-.632-.528-.949-1.396-.95-.869 0-1.308.275-1.318.827v.03c-.002.266.142.511.375.638.25.157.674.292 1.273.405l.992.188c1.148.207 1.981.56 2.5 1.058.52.499.778 1.226.775 2.18v.032c0 1.235-.372 2.133-1.116 2.694-.744.56-1.835.84-3.273.84-1.508 0-2.637-.314-3.387-.942-.75-.627-1.15-1.595-1.203-2.903h2.823c.042.487.212.862.511 1.125.3.262.713.392 1.241.388.57 0 .968-.08 1.194-.241.228-.161.342-.423.342-.786v-.032c.006-.245-.103-.479-.296-.63-.198-.163-.557-.302-1.076-.417zM29.406.35h3.039l3.676 10.75H33.16l-.574-2.009h-3.319l-.588 2.009h-2.963L29.406.35zm.528 6.494h1.968l-.96-3.519h-.032l-.976 3.519zM16.006 8.75L14.719 8.75 12.889 5.027 12.859 5.027 12.859 11.101 10 11.101 10 .351 13.039.351 15.375 5.084 17.701.35 20.741.35 20.741 11.1 17.883 11.1 17.883 5.021 17.851 5.021zM0 .35H4.286V37.179H0z" transform="translate(-130 -5562) translate(0 5277) translate(130 285)"/>
                </g>
            </g>
        </g>
    </g>
</svg>
